!!!!SEGMENT: pl-kk--kk-i-378_scholenberger--offertorium.krn
!!!cenid: 17xx:1978
!!!COM: Scholenberger
!!!COM-rismid: pe50046368
!!!CDT:
!!!CNT:
!!!OTL: Offertorium
!!!PDT:
!!!AGN: Sacred
!!!SMS-siglum: PL-Kk
!!!SMS-shelfmark: Kk.I.378
!!!SMS-shelfwork: W
!!!SMS-variant:
!!!SMS-altvar:
!!!NIFC-rismid: 1001143597
!!!URL-scan: http://repozytorium.nifc.pl/skany/pl-kk-nut--i-378
!!!ONB-nifc:
**kern	**text	**kern	**text	**kern	**text	**kern	**text	**dynam
*part4	*part4	*part3	*part3	*part2	*part2	*part1	*part1	*part1
*staff4	*staff4	*staff3	*staff3	*staff2	*staff2	*staff1	*staff1	*
*I"Baſso	*	*I"Tenore	*	*I"Alto	*	*I"Canto	*	*
*I'B	*	*I'T	*	*I'A	*	*I'S	*	*
*clefF4	*	*clefC4	*	*clefC3	*	*clefC1	*	*
*k[b-e-]	*	*k[b-e-]	*	*k[b-e-]	*	*k[b-e-]	*	*
*M3/4	*	*M3/4	*	*M3/4	*	*M3/4	*	*
=1	=1	=1	=1	=1	=1	=1	=1	=1
!LO:TX:a:t=Offertorium	!	!LO:TX:a:t=Offertorium	!	!LO:TX:a:t=Offertorium	!	!LO:TX:a:t=Offertorium Authore R.P. Scholenberger Cano\n nico Regulari S. Augu.	!	!
!LO:TX:t=P:problem:znaki BB- E- B-	!	!LO:TX:t=P:problem:znaki E- B- e-	!	!LO:TX:t=P:problem:znaki b- ee- B-	!	!LO:TX:t=P:problem:znaki e- b- ee-	!	!
!LO:N:vis=00	!	!LO:N:vis=00	!	!	!	!	!	!
0.r	.	0.r	.	2.r	.	4b-X\	A-	.
.	.	.	.	.	.	4dd\	-ve	.
.	.	.	.	.	.	4b-\	Ma-	.
=2	=2	=2	=2	=2	=2	=2	=2	=2
*	*	*	*	*	*	*2\right	*	*
.	.	.	.	4f\	A-	2ff\	-ri-	.
.	.	.	.	4a\	-ve	.	.	.
.	.	.	.	4f\	Ma-	4ff\	-a	.
=3	=3	=3	=3	=3	=3	=3	=3	=3
*	*	*	*	*2\right	*	*	*	*
.	.	.	.	2b-\	-ri-	4.dd\	gra-	.
.	.	.	.	.	.	8cc\	-ti-	.
.	.	.	.	4b-\	-a	4b-\	-a	.
=4	=4	=4	=4	=4	=4	=4	=4	=4
.	.	.	.	4.a\	gra-	2ff\	ple-	.
.	.	.	.	8g\	-ti-	.	.	.
.	.	.	.	4f\	-a	4ee-\	-na	.
=5	=5	=5	=5	=5	=5	=5	=5	=5
!LO:N:vis=00	!	!LO:N:vis=00	!	!	!	!	!	!
0.r	.	0.r	.	2b-\	ple-	4.dd\	D(o-	.
.	.	.	.	.	.	8cc\	-mi)-	.
.	.	.	.	4b-\	-na	4b-\	-n(us)	.
=6	=6	=6	=6	=6	=6	=6	=6	=6
.	.	.	.	4.g\	D(o-	2ee-\	te-	.
.	.	.	.	8f\	-mi)-	.	.	.
.	.	.	.	4e-\	-nus	4ee-\	-cu(m)	.
=7	=7	=7	=7	=7	=7	=7	=7	=7
*	*	*	*	*	*ij	*	*	*
.	.	.	.	4.f\	D(o-	4.ee-\	D(o-	.
.	.	.	.	8f\	-mi)-	8ee-\	-mi)-	.
.	.	.	.	4b-\	-nus	4dd\	-nus	.
*	*	*	*	*	*Xij	*	*	*
!	!	!	!	!	!	!LO:LB:g=original	!	!
=8	=8	=8	=8	=8	=8	=8	=8	=8
*	*	*	*	*	*	*	*ij	*
.	.	.	.	2b-\	te-	2.cc\	te-	.
.	.	.	.	4a\	.	.	.	.
!	!	!	!	!LO:LB:g=original	!	!	!	!
=9	=9	=9	=9	=9	=9	=9	=9	=9
!	!	!LO:TX:a:t=P:problem:♭ above	!	!	!	!	!	!
2.r	.	4B-X\	A-	4b-\	-cum	4b-\	-cum	.
*	*	*	*	*	*	*	*Xij	*
.	.	4d\	-ve	4f\	a-	4b-\	a-	.
.	.	4B-\	Ma-	4b-\	-ve	4dd\	-ve	.
=10	=10	=10	=10	=10	=10	=10	=10	=10
*	*	*2\right	*	*	*ij	*	*ij	*
4F\	A-	2f\	-ri-	2a\	a-	2cc\	a-	.
4A\	-ve	.	.	.	.	.	.	.
4F\	Ma-	4f\	-a	4a\	-ve	4cc\	-ve	.
*	*	*	*	*	*Xij	*	*	*
=11	=11	=11	=11	=11	=11	=11	=11	=11
*2\right	*	*	*	*	*	*	*	*
2B-\	-ri-	4.d\	gra-	4r	.	4r	.	.
.	.	.	.	4f\	a-	4dd\	a-	.
.	.	8c\	-ti-	.	.	.	.	.
4B-\	-a	4B-\	-a	4f\	-ve	4dd\	-ve	.
*	*	*	*	*	*	*	*Xij	*
=12	=12	=12	=12	=12	=12	=12	=12	=12
4.A\	gra-	2f\	ple-	4.f\	gra-	4.cc\	gra-	.
8G\	-ti-	.	.	8f\	-ti-	8b-\	-ti-	.
4F\	-a	4f\	-na	4f\	-a	4a\	-a	.
=13	=13	=13	=13	=13	=13	=13	=13	=13
2B-\	ple-	4.d\	D(o-	2f\	ple-	2dd\	ple-	.
.	.	8c\	-mi)-	.	.	.	.	.
4B-\	-na	4B-\	-nus	4f\	-na	4dd\	-na	.
=14	=14	=14	=14	=14	=14	=14	=14	=14
4.G\	D(o-	2e-X\	t(e)-	4.e-\	D(o-	4.b-\	D(o-	.
8F\	-mi)-	.	.	8f\	-mi)-	8a\	-mi)-	.
4E-\	-nus	4e-\	-cu(m)	4g\	-nus	4g/	-n(us)	.
=15	=15	=15	=15	=15	=15	=15	=15	=15
*	*ij	*	*	*	*ij	*	*ij	*
4.F\	D(o-	4.e-\	D(o-	4.f\	D(o-	4.a\	D(o-	.
8F\	-mi)-	8e-\	-mi)-	8f\	-mi)-	8a\	-mi)-	.
4B-\	-nus	4d\	-nus	4f\	-nus	4b-\	-n(us)	.
*	*Xij	*	*	*	*Xij	*	*Xij	*
!	!	!LO:LB:g=original	!	!	!	!	!	!
=16	=16	=16	=16	=16	=16	=16	=16	=16
(2B-\	te-	2.c\	te-	2e-\	te-	2.ee-\	te-	.
4A\)	.	.	.	4f\	.	.	.	.
!LO:LB:g=original	!	!	!	!	!	!	!	!
=17	=17	=17	=17	=17	=17	=17	=17	=17
4B-\	-cum	4B-\	-cum	4f\	-cum	4dd,\	-cu(m)	.
4r	.	4r	.	4r	.	4b-\	be-	.
4r	.	4r	.	4r	.	4a\	-ne-	.
!	!	!	!	!LO:LB:g=original	!	!LO:LB:g=original	!	!
=18	=18	=18	=18	=18	=18	=18	=18	=18
!LO:N:vis=00	!	!LO:N:vis=00	!	!	!	!	!	!
0.r	.	0.r	.	4r	.	(4g/	-di-	.
.	.	.	.	4e-\	be-	4a/)	.	.
.	.	.	.	4d\	-ne-	4b-/	-cta	.
=19	=19	=19	=19	=19	=19	=19	=19	=19
.	.	.	.	4c\	-di-	2cc,\	tu	.
.	.	.	.	(4d\	-cta	.	.	.
.	.	.	.	4e-\)	.	4b-\	in	.
=20	=20	=20	=20	=20	=20	=20	=20	=20
.	.	.	.	2f\	tu	4a\	Mu-	.
.	.	.	.	.	.	4dd\	-li-	.
.	.	.	.	4e-\	in	4cc\	-e-	.
=21	=21	=21	=21	=21	=21	=21	=21	=21
.	.	.	.	4d\	Mu-	4.b-\	-[[ri-]]	.
.	.	.	.	4g\	.	.	.	.
.	.	.	.	.	.	8cc\	.	.
.	.	.	.	4f\	-li-	8a\	.	.
.	.	.	.	.	.	8b-\	.	.
=22-	=22	=22-	=22	=22	=22	=22	=22	=22
2.r	.	4r	.	2f\	-e-	2g/	-ri-	.
.	.	4c\	be-	.	.	.	.	.
.	.	4B-\	-ne-	4en\	-ri-	4g/	-b(us)	.
=23-	=23	=23	=23	=23	=23	=23	=23	=23
4r	.	4A/	-di-	2f\	-bus	4f,/	.	.
4F\	be-	4B-\	-cta	.	.	4a/	Be-	.
4E-\	-ne-	4c\	tu	4r	.	4g/	-ne-	.
=24	=24	=24	=24	=24	=24	=24	=24	=24
4D/	-di-	2d\	in	4r	.	4f/	-di-	.
4E-\	.	.	.	4f\	be-	4g/	.	.
4F\	-cta	4c\	.	(4e-\	ne-	4a/	-cta	.
=25	=25	=25	=25	=25	=25	=25	=25	=25
2G\	tu	4B-\	Mu-	4d\)	.	2b-\	tu	.
.	.	4e-\	.	4e-\	-dic-	.	.	.
4F\	in	4d\	-li-	4f\	-ta	4a\	in	.
=26	=26	=26	=26	=26	=26	=26	=26	=26
4E-\	Mu-	4.c\	-e-	4g\	tu	4g/	Mu-	.
4A-X\	.	.	.	4f\	in	4a-X\	.	.
.	.	8d\	[[-ri-]]	.	.	.	.	.
4G\	-li-	8B-\	[[-bus]]	4e-\	.	4ee-\	.	.
.	.	8c\	.	.	.	.	.	.
!	!	!	!	!LO:LB:g=original	!	!LO:LB:g=original	!	!
=27	=27	=27	=27	=27	=27	=27	=27	=27
2F\	-e-	2A-X/	.	4f\	Mu-	2ee-\	-li-	.
.	.	.	.	4.f\	-li-	.	.	.
4G\	-ri-	4A-/	-ri-	.	.	4dd\	-eri-	.
.	.	.	.	8f\	-eri-	.	.	.
=28	=28	=28	=28	=28	=28	=28	=28	=28
4E-\	-b(us)	2G/	-bus	4G/	-b(us)	2ee-\	-b(us)	.
4E-\	be-	.	.	4g\	be-	.	.	.
4D\	-ne-	4r	.	4f\	-ne-	4r	.	.
!	!	!LO:LB:g=original	!	!	!	!	!	!
=29	=29	=29	=29	=29	=29	=29	=29	=29
4C/	-di-	4r	.	4e-\	-di-	4r	.	.
4D/	.	4c\	be-	4f\	.	4ee-\	Be-	.
4E-/	-cta	4B-\	-ne-	4g\	-cta	4dd\	-ne-	.
=30	=30	=30	=30	=30	=30	=30	=30	=30
4F\	tu	4A\	-di-	4a\	tu	(4cc\	-di-	.
*	*	*	*	*	*ij	*	*	*
4F\	be-	4B-\	-cta	4a\	be-	4dd\)	.	.
4E-\	.	4c\	tu	4g\	-ne-	4ee-\	-cta	.
!LO:LB:g=original	!	!	!	!	!	!	!	!
=31-	=31	=31	=31	=31	=31	=31	=31	=31
4D\	-ne-	2d\	in	4f\	-di-	2ff\	tu	.
4E-\	-dic-	.	.	4g\	.	.	.	.
4F\	-ta	4c\	.	4a\	-cta	4ee-\	in	.
=32	=32	=32	=32	=32	=32	=32	=32	=32
4G\	tu	4B-\	Mu-	4b-\	tu	4dd\	Mu-	.
*	*ij	*	*	*	*	*	*	*
4E-\	be-	4e-\	.	4b-\	be-	4gg\	.	.
4BB-/	-ne-	4d\	-li-	4b-\	-ne-	4ff\	-li-	.
=33	=33	=33	=33	=33	=33	=33	=33	=33
2C/	-dic-	4.c\	-e-	4g\	-dic-	4.ee-\	-e-	.
.	.	.	.	4e-\	.	.	.	.
.	.	8d\	.	.	.	8ff\	.	.
4D/	-ta	8B-\	.	4f\	-ta	8dd\	.	.
.	.	8c\	.	.	.	8ee-\	.	.
=34	=34	=34	=34	=34	=34	=34	=34	=34
4.F\	tu	4A/	.	4.f\	tu	4cc\	-ri-	.
*	*Xij	*	*	*	*Xij	*	*	*
.	.	8B-\	-ri-	.	.	8cc\	-b(us)	.
8F\	in	8B-\	-b(us)	8f\	in	8cc\	Mu-	.
4E-\	Mu-	4B-\	Mu-	4g\	Mu-	4cc\	.	.
!	!	!	!	!LO:LB:g=original	!	!	!	!
=35	=35	=35	=35	=35	=35	=35	=35	=35
4E-\	-li-	4B-\	-li-	4g\	-li-	4cc\	-li-	.
!	!	!	!	!	!	!LO:LB:g=original	!	!
4.F\	-e-	4.B-\	-e-	4.f\	-e-	4.cc\	-e-	.
8F\	-ri-	8A\	-ri-	8g\	-ri-	8cc\	-ri-	.
=36	=36	=36	=36	=36-	=36	=36	=36	=36
2.BB-/	-b(us)	2.B-\	-b(us)	2.d\	-b(us)	2.b-\	-bus	.
=37	=37	=37	=37	=37	=37	=37	=37	=37
!LO:N:vis=0	!	!LO:N:vis=0	!	!	!	!	!	!
1.r	.	1.r	.	2.r	.	4dd\	et	.
.	.	.	.	.	.	4cc\	Be-	.
.	.	.	.	.	.	4b-\	-ne-	.
=38	=38	=38	=38	=38-	=38	=38	=38	=38
.	.	.	.	4g\	et	2ee-X\	-di-	.
.	.	.	.	4f\	be-	.	.	.
.	.	.	.	4e-\	-ne-	4ee-\	-ct(us)	.
!	!	!LO:LB:g=original	!	!	!	!	!	!
=39-	=39	=39-	=39	=39	=39	=39	=39	=39
*	*	*	*	*	*	*	*ij	*
2.r	.	4c\	et	2b-\	-di-	4ee-\	et	.
.	.	4B-\	be-	.	.	4ee-\	Be-	.
.	.	4A\	-ne-	4b-\	-ct(us)	4dd\	-ne-	.
=40-	=40	=40	=40	=40	=40	=40	=40	=40
*	*	*	*	*	*ij	*	*	*
4G\	et	2e-X\	-di-	4b-\	et	2gg\	-di-	.
4F\	be-	.	.	4a-X\	be-	.	.	.
4E-\	-ne-	4e-\	-ct(us)	4g\	-ne-	4gg\	-ct(us)	.
=41	=41	=41	=41	=41	=41	=41	=41	=41
*	*	*	*ij	*	*	*	*	*
2B-\	-di-	4f\	et	2b-\	-di-	4dd\	et	.
.	.	4e-\	be-	.	.	4cc\	Be-	.
4B-\	-ct(us)	4d\	-ne-	4b-\	-ct(us)	4b-\	-ne-	.
=42	=42	=42	=42	=42	=42	=42	=42	=42
*	*ij	*	*	*	*	*	*	*
4G\	et	2g\	-di-	4b-\	et	2ee-\	-di-	.
4F\	be-	.	.	4a-X\	be-	.	.	.
4E-\	-ne-	4g\	-ct(us)	4g\	-ne-	4ee-\	-ct(us)	.
*	*	*	*Xij	*	*	*	*Xij	*
!LO:LB:g=original	!	!	!	!	!	!	!	!
=43	=43	=43	=43	=43	=43	=43	=43	=43
!	!	!	!	!LO:SIC:v:s=2a-	!	!	!	!
2A-X\	-di-	4r	.	2a\	-di-	4r	.	.
.	.	4e-\	fru-	.	.	4cc\	fru-	.
!	!	!	!	!LO:SIC:v:s=4a-	!	!	!	!
4A-\	-ct(us)	4c\	-ct(us)	4a\	-ct(us)	4a-X\	-ct(us)	.
*	*Xij	*	*	*	*Xij	*	*	*
=44	=44	=44	=44	=44	=44	=44	=44	=44
4r	.	2g\	ven-	4r	.	2ee-\	ven-	.
4G\	fru-	.	.	4b-\	fru-	.	.	.
4E-\	-ct(us)	4g\	-tris	4g\	-ct(us)	4ee-\	-tris	.
!	!	!	!	!LO:LB:g=original	!	!LO:LB:g=original	!	!
=45	=45	=45	=45	=45	=45	=45	=45	=45
*	*	*	*ij	*	*	*	*ij	*
4.B-\	ven-	4.B-\	ven-	4.f\	ven-	4.dd\	ven-	.
8G\	.	8B-\	-tris	8g\	-tris	8ee-\	-tris	.
*	*	*	*Xij	*	*	*	*Xij	*
4A-X\	.	4c\	tu-	(8e-\	tu-	8cc\	tu-	.
.	.	.	.	8f\)	.	8dd\	.	.
=46	=46	=46	=46	=46	=46	=46	=46	=46
4E-\	-tris	4B-\	-i	4g\	-i	4ee-\	-i	.
2B-\	tu-	2B-\	Je-	2f\	Je-	4.ee-\	Je-	.
.	.	.	.	.	.	8dd\	.	.
=47	=47	=47	=47	=47	=47	=47	=47	=47
2.E-\	-i	2B-\	-sus	4g\	-sus	4ee-,\	-sus	.
.	.	.	.	4e-\	fru-	4b-\	fru-	.
.	.	4r	.	4g\	-ct(us)	4ee-\	-ct(us)	.
=48	=48	=48	=48	=48	=48	=48	=48	=48
4r	.	4r	.	2f\	ven-	2dd\	Ven-	.
4D/	ven-	4B-\	fru-	.	.	.	.	.
4BB-/	-tris	4B-\	-ct(us)	4f\	-tris	4dd\	-tris	.
!	!	!LO:LB:g=original	!	!	!	!	!	!
=49	=49	=49	=49	=49	=49	=49	=49	=49
*	*	*	*	*	*ij	*	*	*
4.F\	ven-	4.A\	ven-	4.f\	ven-	4.cc\	tu-	.
8D\	.	8B-\	-tris	8f\	-tris	8dd\	.	.
*	*	*	*	*	*Xij	*	*	*
4E-\	.	8G/	tu-	4g\	tu-	8b-\	-i	.
.	.	8A/	.	.	.	8cc\	.	.
=50	=50	=50	=50	=50	=50	=50	=50	=50
4BB-/	-tris	4B-\	-i	4f\	-i	4dd\	Je-	.
2F\	tu-	4.B-\	Je-	2f\	Je-	2cc\	.	.
.	.	8A/	.	.	.	.	.	.
=51	=51	=51	=51	=51	=51	=51	=51	=51
4BB-/	-i	2B-\	-sus	2d\	-sus	2b-\	-sus	.
4D/	Je-	.	.	.	.	.	.	.
4BB-/	-sus	4r	.	4r	.	4r	.	.
=52	=52	=52	=52	=52	=52	=52	=52	=52
!	!	!	!	!	!	!	!	!LO:DY:t=piano
*	*ij	*	*ij	*	*ij	*	*	*
4.F\	ven-	4.A\	ven-	4.f\	ven-	4.cc\	ven-	p
8D\	-tris	8B-\	-tris	8f\	-tris	8dd\	-tris	.
4E-\	tu-	8G/	tu-	4g\	tu-	8b-\	tu-	.
.	.	8A/	.	.	.	8cc\	.	.
!LO:LB:g=original	!	!	!	!	!	!LO:LB:g=original	!	!
=53	=53	=53	=53	=53	=53	=53	=53	=53
4BB-/	-i	4B-\	-i	4f\	-i	4dd\	-i	.
2F\	Je-	(4.B-\	Je-	2f\	Je-	2cc\	Je-	.
.	.	8A/)	.	.	.	.	.	.
!	!	!	!	!LO:LB:g=original	!	!	!	!
=54	=54	=54	=54	=54	=54	=54	=54	=54
2.BB-/	-sus	2.B-\	-sus	2.d\	-sus	2.b-\	-sus	.
*	*Xij	*	*Xij	*	*Xij	*	*	*
=55	=55	=55	=55	=55	=55	=55	=55	=55
4B-\	S(an)-	4B-\	S(an)-	4f\	S(an)-	4dd\	San-	.
4B-\	-cta	4B-\	-cta	4f\	-cta	4dd\	-cta	.
4G\	Ma-	4B-\	Ma-	4g\	Ma-	4ee-\	Ma-	.
=56	=56	=56	=56	=56	=56	=56	=56	=56
2A-X\	-ri-	2A-X\	-ri-	2e-\	-ri-	2cc\	-ri-	.
4A-\	-a	4A-\	-a	4e-\	-a	4cc\	-a	.
=57	=57	=57	=57	=57	=57	=57	=57	=57
!LO:SIC:v:s=4A-	!	!	!	!	!	!	!	!
*	*ij	*	*ij	*	*ij	*	*ij	*
4A\	S(an)-	4e-\	S(an)-	4a-X\	S(an)-	4cc\	San-	.
!LO:SIC:v:s=4A-	!	!	!	!	!	!	!	!
4A\	-cta	4e-\	-cta	4a-\	-cta	4cc\	-cta	.
!	!	!LO:LB:g=original	!	!	!	!	!	!
4F\	Ma-	8d\	Ma-	4a-\	Ma-	4ff\	Ma-	.
.	.	8c\	.	.	.	.	.	.
=58	=58	=58	=58	=58	=58	=58	=58	=58
4.G\	-ri-	4.Bn\	ri-	4.g\	-ri-	4.ff\	-ri-	.
8G\	-a	8B\	-a	8g\	-a	8gg\	-a	.
*	*Xij	*	*Xij	*	*Xij	*	*Xij	*
4A-X\	Ma-	4c\	Ma-	4e-\	Ma-	4ee-\	Ma-	.
=59	=59	=59	=59	=59	=59	=59	=59	=59
4F\	-ter	4c\	-ter	4a-X\	-ter	4dd\	-ter	.
2G\	De-	(4.c\	De-	2g\	De-	2dd\	De-	.
!	!	!LO:SIC:v:s=Bn	!	!	!	!	!	!
.	.	8B-\)	.	.	.	.	.	.
=60	=60	=60	=60	=60	=60	=60	=60	=60
2C/	-i	4c\	-i	4en\	-i	4cc\	-i	.
.	.	4r	.	4r	.	4cc\	o-	.
4r	.	4r	.	4r	.	4b-\	-ra	.
=61-	=61	=61	=61	=61	=61	=61	=61	=61
*	*	*	*	*	*	*	*ij	*
!LO:N:vis=00	!	!LO:N:vis=00	!	!	!	!	!	!
0.r	.	0.r	.	4r	.	2a\	o-	.
.	.	.	.	4f\	o-	.	.	.
.	.	.	.	4e-X\	-ra	4a\	-ra	.
*	*	*	*	*	*	*	*Xij	*
=62	=62	=62	=62	=62	=62	=62	=62	=62
*	*	*	*	*	*ij	*	*	*
.	.	.	.	2d\	o-	4r	.	.
.	.	.	.	.	.	4dd\	o-	.
.	.	.	.	4d\	-ra	4cc\	-ra	.
*	*	*	*	*	*Xij	*	*	*
!	!	!	!	!LO:LB:g=original	!	!LO:LB:g=original	!	!
=63	=63	=63	=63	=63	=63	=63	=63	=63
*	*	*	*	*	*	*	*ij	*
.	.	.	.	4r	.	4.b-\	o-	.
.	.	.	.	4g\	o-	.	.	.
.	.	.	.	.	.	8cc\	-ra	.
*	*	*	*	*	*	*	*Xij	*
.	.	.	.	4f\	-ra	4a\	pro	.
=64	=64	=64	=64	=64	=64	=64	=64	=64
*	*	*	*	*	*ij	*	*	*
.	.	.	.	4en\	o-	4g/	no-	.
.	.	.	.	8e\	-ra	4g/	-bis	.
*	*	*	*	*	*Xij	*	*	*
.	.	.	.	8e\	pro	.	.	.
.	.	.	.	4f\	pec-	4g/	pec-	.
=65-	=65	=65-	=65	=65	=65	=65	=65	=65
2.r	.	4r	.	4f\	-ca-	4g/	-ca-	.
.	.	4c\	o-	4.f\	-to-	4.g/	-to-	.
.	.	4B-\	-ra	.	.	.	.	.
.	.	.	.	8en\	-ri-	8g/	-ri-	.
=66	=66	=66	=66	=66	=66	=66	=66	=66
*	*	*	*ij	*	*	*	*	*
4r	.	2A/	o-	4f\	-b(us)	2f/	-b(us)	.
4F\	o-	.	.	4a\	o-	.	.	.
4E-\	-ra	4A/	-ra	4g\	-ra	4r	.	.
*	*	*	*Xij	*	*	*	*	*
=67	=67	=67	=67	=67	=67	=67	=67	=67
*	*ij	*	*	*	*ij	*	*	*
2D/	o-	4r	.	2f\	o-	4r	.	.
.	.	4d\	o-	.	.	4ff\	o-	.
4D/	-ra	4c\	-ra	4f\	-ra	4ee-\	-ra	.
!LO:LB:g=original	!	!	!	!	!	!	!	!
=68	=68	=68	=68	=68	=68	=68	=68	=68
*	*	*	*ij	*	*	*	*ij	*
4r	.	2B-\	o-	4r	.	2dd\	o-	.
4G\	o-	.	.	4b-\	o-	.	.	.
4F\	-ra	4B-\	-ra	4a\	-ra	4dd\	-ra	.
=69	=69	=69	=69	=69	=69	=69	=69	=69
4E-\	o-	4r	.	4g\	o-	4r	.	.
4E-\	-ra	4e-\	o-	4g\	-ra	4gg\	o-	.
*	*Xij	*	*	*	*Xij	*	*	*
4BB-/	p(ro)	4d\	-ra	4a\	p(ro)	4ff\	-ra	.
!	!	!LO:LB:g=original	!	!	!	!	!	!
=70	=70	=70	=70	=70	=70	=70	=70	=70
2C/	No-	4.c\	o-	2g\	no-	4.ee-\	o-	.
.	.	8d\	-ra	.	.	8ff\	-ra	.
*	*	*	*Xij	*	*	*	*Xij	*
8D\	-bis	4B-\	p(ro)	4f\	-bis	4dd\	pro	.
*	*ij	*	*	*	*	*	*	*
8E-\	p(ro)	.	.	.	.	.	.	.
!	!	!	!	!LO:PB:g=original	!	!	!	!
=71	=71	=71	=71	=71	=71	=71	=71	=71
*	*	*	*	*	*ij	*	*	*
4F\	no-	4A\	no-	4f\	pro	4cc\	no-	.
*	*	*	*	*	*Xij	*	*	*
4F\	-bis	4A\	-bis	4f\	pec-	4cc\	-bis	.
*	*Xij	*	*	*	*	*	*	*
4E-\	pec-	4B-\	pec-	4g\	-ca-	4cc\	pec-	.
!	!	!	!	!	!	!LO:PB:g=original	!	!
=72	=72	=72	=72	=72	=72	=72	=72	=72
4E-\	-ca-	4B-\	-ca-	4g\	-to-	4cc\	-ca-	.
4.F\	-to-	4.B-\	-to-	4.f\	.	4.cc\	-to-	.
8F\	-ri-	8A\	ri-	8f\	-ri-	8cc\	-ri-	.
=73	=73	=73	=73	=73	=73	=73	=73	=73
2.BB-/	-b(us)	2.B-\	-b(us)	2.d\	-bus	2.b-\	-b(us)	.
=74	=74	=74	=74	=74	=74	=74	=74	=74
4BB-/	n(un)c	2.r	.	4d\	n(un)c	2.r	.	.
4D/	et	.	.	4f\	et	.	.	.
4BB-/	in	.	.	4d\	in	.	.	.
=75	=75	=75-	=75	=75	=75	=75	=75	=75
2E-\	ho-	4r	.	2g\	ho-	4r	.	.
.	.	4B-\	a-	.	.	4g/	a-	.
4E-\	-ra	4G/	-men	4g\	-ra	4e-/	-men	.
=76	=76	=76	=76	=76	=76	=76	=76	=76
2D\	Mor-	8d\	a-	2f\	Mor-	(8b-\	a-	.
.	.	8c\	.	.	.	8a\	.	.
.	.	8d\	.	.	.	8b-\	.	.
.	.	8e-\	.	.	.	8cc\)	.	.
4D\	-tis	8f\	.	4f\	-tis	8dd\	.	.
.	.	8d\	.	.	.	8b-\	.	.
=77	=77	=77	=77	=77	=77	=77	=77	=77
2.C/	no-	8g\	.	4r	.	8ee-\	.	.
.	.	8f\	.	.	.	8dd\	.	.
.	.	8e-\	.	4g\	a-	8ee-\	.	.
.	.	8d\	.	.	.	8ff\	.	.
.	.	4c\	.	4e-\	-men	8ee-\	.	.
.	.	.	.	.	.	8ff\	.	.
!LO:LB:g=original	!	!LO:LB:g=original	!	!	!	!	!	!
=78	=78	=78	=78	=78	=78	=78	=78	=78
4BB-/	-strae	4f\	.	8b-\	a-	8dd\	.	.
.	.	.	.	8a\	.	8cc\	.	.
4D/	a-	4f\	-men	(8b-\	.	8dd\	.	.
.	.	.	.	8cc\)	.	8ee-\	.	.
4BB-/	.	4r	.	8b-\	.	8dd\	.	.
.	.	.	.	8cc\	.	8ee-\	.	.
!	!	!	!	!LO:LB:g=original	!	!LO:LB:g=original	!	!
=79	=79	=79	=79	=79	=79	=79	=79	=79
8F\	-men	4A/	n(un)c	8a\	.	4cc\	.	.
(8E-\	a-	.	.	8g\	.	.	.	.
8F\	.	4c\	et	8a\	.	4cc\	-men	.
8G\)	.	.	.	8b-\	.	.	.	.
8A\	.	4A/	in	8.a\	.	4r	.	.
8F\	.	.	.	.	.	.	.	.
.	.	.	.	16g\	.	.	.	.
=80	=80	=80	=80	=80	=80	=80	=80	=80
8B-\	.	2d\	ho-	4f\	.	4b-\	nunc	.
(8A\	.	.	.	.	.	.	.	.
8B-\	.	.	.	4f\	-men	4dd\	et	.
8c\)	.	.	.	.	.	.	.	.
8B-\	.	4d\	-ra	4r	.	4b-\	in	.
8c\	.	.	.	.	.	.	.	.
=81	=81	=81	=81	=81	=81	=81	=81	=81
8A-X\	.	2c\	Mor-	4f\	n(un)c	2ff\	ho-	.
(8G\	.	.	.	.	.	.	.	.
!	!	!	!	!LO:SIC:v:s=4a-	!	!	!	!
8A-\	.	.	.	4a\	et	.	.	.
8B-\)	.	.	.	.	.	.	.	.
8A-\	.	4c\	-tis	4f\	in	4ff\	-ra	.
8B-\	.	.	.	.	.	.	.	.
=82	=82	=82	=82	=82	=82	=82	=82	=82
4G\	.	2B-\	noſ-	2b-\	ho-	4r	.	.
4G\	-men	.	.	.	.	4dd\	mor-	.
4r	.	4G/	-trae	4b-\	-ra	4gg\	-tis	.
=83	=83	=83	=83	=83	=83	=83	=83	=83
!LO:N:vis=0	!	!	!	!	!	!	!	!
1.r	.	4d\	a-	2a\	Mor-	2ff\	nos-	.
.	.	8c\	.	.	.	.	.	.
.	.	8B-\	.	.	.	.	.	.
.	.	4A/	.	4a\	-tis	2ff\	-trae	.
=84	=84	=84	=84	=84	=84	=84-	=84	=84
.	.	4B-\	-men	2.g\	nos-	.	.	.
*	*	*	*ij	*	*	*	*	*
.	.	2c\	a-	.	.	4.ff\	a-	.
.	.	.	.	.	.	8een\	.	.
!LO:PB:g=original	!	!	!	!	!	!	!	!
=85	=85	=85	=85	=85	=85	=85	=85	=85
4F\	n(un)c	4F/	-men	2.f\	-trae	2ff\	-men	.
4A\	et	4c\	a-	.	.	.	.	.
4F\	in	4A/	-men	.	.	4r	.	.
*	*	*	*Xij	*	*	*	*	*
=86	=86	=86	=86	=86	=86	=86	=86	=86
2B-\	ho-	8d\	a-	4B-/	n(un)c	2.r	.	.
.	.	8c\	.	.	.	.	.	.
.	.	8d\	.	4d/	et	.	.	.
.	.	8e-\	.	.	.	.	.	.
4B-\	-ra	8d\	.	4B-/	in	.	.	.
.	.	8e-\	.	.	.	.	.	.
!	!	!LO:PB:g=original	!	!LO:LB:g=original	!	!	!	!
=87	=87	=87	=87	=87	=87	=87-	=87	=87
2A\	Mor-	8c\	.	2f\	ho-	4f/	n(un)c	.
.	.	(8B-\	.	.	.	.	.	.
.	.	8c\	.	.	.	4a/	et	.
.	.	8d\)	.	.	.	.	.	.
4A\	-tis	8c\	.	4f\	-ra	4f/	in	.
.	.	8d\	.	.	.	.	.	.
=88	=88	=88	=88	=88	=88	=88	=88	=88
2.G\	nos-	4B-\	.	4r	.	2b-\	ho-	.
.	.	4B-\	-men	4d\	mor-	.	.	.
.	.	4r	.	4g\	-tis	4cc\	-ra	.
=89	=89	=89	=89	=89	=89	=89	=89	=89
4F\	-trae	4A/	n(un)c	2c/	noſ-	2a\	Mor-	.
4AA/	a-	4c\	et	.	.	.	.	.
4FF/	.	4A\	in	2f\	-trae	4a\	-tis	.
!	!	!	!	!	!	!LO:LB:g=original	!	!
=90	=90	=90	=90	=90-	=90	=90	=90	=90
8C/	-men	2c\	ho-	.	.	2.g/	nos-	.
8BB-/	a-	.	.	.	.	.	.	.
8C/	.	.	.	(4.f\	a-	.	.	.
8D/	.	.	.	.	.	.	.	.
8.C/	.	4c\	-ra	.	.	.	.	.
.	.	.	.	8en\)	.	.	.	.
16BB-/	.	.	.	.	.	.	.	.
=91	=91	=91	=91	=91	=91	=91	=91	=91
4AA/	.	4c\	Mor-	4f\	-men	4f/	-trae	.
*	*	*	*	*	*ij	*	*	*
4FF/	-men	4c\	-tis	4a\	a-	(<8ff\	a-	.
.	.	.	.	.	.	8gg\	.	.
4r	.	4r	.	4f\	-men	8ff\)	.	.
*	*	*	*	*	*Xij	*	*	*
.	.	.	.	.	.	8ee-\	.	.
=92	=92	=92	=92	=92	=92	=92	=92	=92
4BB-/	n(un)c	2.r	.	8b-\	a-	8dd\	.	.
.	.	.	.	(8a\	.	8cc\	.	.
4D/	et	.	.	8b-\	.	8dd\	.	.
.	.	.	.	8cc\)	.	8ee-\	.	.
4BB-/	in	.	.	8b-\	.	8dd\	.	.
.	.	.	.	8cc\	.	8ee-\	.	.
!LO:LB:g=original	!	!	!	!	!	!	!	!
=93	=93	=93-	=93	=93	=93	=93	=93	=93
2F\	ho-	4F/	n(un)c	8a\	.	4cc\	.	.
.	.	.	.	8g\	.	.	.	.
.	.	4A/	et	8a\	.	4cc\	-men	.
.	.	.	.	8b-\	.	.	.	.
!	!	!	!	!LO:LB:g=original	!	!	!	!
4F\	-ra	4F/	in	8a\	.	4r	.	.
.	.	.	.	8g\	.	.	.	.
=94	=94	=94	=94	=94	=94	=94	=94	=94
2D\	Mor-	2B-\	ho-	8f\	.	4b-\	n(un)c	.
.	.	.	.	8e-\	.	.	.	.
.	.	.	.	8f\	.	4dd\	et	.
.	.	.	.	8g\	.	.	.	.
4D\	-tis	4B-\	-ra	8f\	.	4b-\	in	.
.	.	.	.	8g\	.	.	.	.
=95	=95	=95-	=95	=95	=95	=95	=95	=95
2.C/	nos-	4r	.	4e-\	.	2ee-\	ho-	.
!	!	!LO:LB:g=original	!	!	!	!	!	!
.	.	4G/	a-	4e-\	-men	.	.	.
.	.	4E-/	-men	4r	.	4ee-\	-ra	.
=96	=96	=96	=96	=96	=96	=96	=96	=96
4BB-/	-trae	(8B-\	a-	4d\	in	2dd\	mor-	.
.	.	8A\	.	.	.	.	.	.
4D/	a-	8B-\	.	4f\	ho-	.	.	.
.	.	8c\)	.	.	.	.	.	.
4BB-/	.	8B-\	.	4d\	-ra	4dd\	-tis	.
.	.	8c\	.	.	.	.	.	.
=97	=97	=97	=97	=97	=97	=97	=97	=97
8F\	-men	8A/	.	2f\	Mor-	2.cc\	nos-	.
8E-\	a-	(8G/	.	.	.	.	.	.
8F\	.	8A/	.	.	.	.	.	.
8G\	.	8B-/)	.	.	.	.	.	.
8F\	.	8A/	.	4f\	-tis	.	.	.
8E-\	.	8G/	.	.	.	.	.	.
=98	=98	=98	=98	=98	=98	=98-	=98	=98
8D\	.	4F/	.	8f\	a-	4b-\	-trae	.
8C\	.	.	.	(8e-\	.	.	.	.
!	!	!	!	!	!	!LO:LB:g=original	!	!
8D\	.	4F/	-men	8f\	.	4dd\	a-	.
8E-\	.	.	.	8g\)	.	.	.	.
8D\	.	4r	.	8f\	.	4b-\	-men	.
8E-\	.	.	.	8g\	.	.	.	.
=99	=99	=99	=99	=99	=99	=99	=99	=99
4C/	.	4r	.	4e-\	.	8ee-\	a-	.
.	.	.	.	.	.	8dd\	.	.
*	*	*	*ij	*	*	*	*	*
4C/	men	4G/	a-	4e-\	-men	(8ee-\	.	.
.	.	.	.	.	.	8ff\	.	.
!LO:LB:g=original	!	!	!	!	!	!	!	!
4r	.	4E-/	-men	4r	.	8ee-\)	.	.
*	*	*	*Xij	*	*	*	*	*
.	.	.	.	.	.	8ff\	.	.
!	!	!	!	!LO:LB:g=original	!	!	!	!
=100	=100	=100	=100	=100	=100	=100	=100	=100
4BB-/	in	8B-\	a-	4d\	n(un)c	8dd\	.	.
.	.	8A\	.	.	.	8cc\	.	.
4D/	ho-	8B-\	.	4f\	et	8dd\	.	.
.	.	8c\	.	.	.	8ee-\	.	.
!	!	!LO:LB:g=original	!	!	!	!	!	!
4BB-/	-ra	8B-\	.	4d\	in	8dd\	.	.
.	.	8c\	.	.	.	8ee-\	.	.
=101	=101	=101	=101	=101	=101	=101	=101	=101
4.F\	Mor-	2A/	.	4.f\	ho-	2cc\	.	.
8E-\	-tis	.	.	8g\	-ra	.	.	.
4D/	noſ-	2B-\	-men	4f\	Mor-	2dd\	-men	.
=102	=102	=102-	=102	=102	=102	=102-	=102	=102
4BB-/	-trae	.	.	4f\	-tis	.	.	.
*	*	*	*ij	*	*	*	*	*
2F\	a-	4B-\	a-	2f\	n(os-	2cc\	a-	.
.	.	4A\	-men	.	.	.	.	.
*	*	*	*Xij	*	*	*	*	*
=103	=103	=103	=103	=103	=103	=103	=103	=103
4BB-/	-men	4B-\	n(un)c	4f\	-t)rae	4dd\	-men	.
4r	.	4d\	et	8b-\	a-	8dd\	a-	.
.	.	.	.	8cc\	.	8ee-\	.	.
!LO:TX:a:t=vi	!	!	!	!	!	!	!	!
4r	.	4B-\	in	8b-\	.	8dd\	.	.
.	.	.	.	8cc\	.	8ee-\	.	.
=104	=104	=104	=104	=104	=104	=104	=104	=104
!LO:TX:a:t=de	!	!	!	!	!	!	!	!
!LO:N:vis=0	!	!	!	!	!	!	!	!
1.r	.	2f\	ho-	8a\	.	4cc\	.	.
.	.	.	.	8g\	.	.	.	.
.	.	.	.	8a\	.	4cc\	-men	.
.	.	.	.	8b-\	.	.	.	.
.	.	4f\	-ra	8a\	.	4r	.	.
.	.	.	.	8g\	.	.	.	.
!	!	!	!	!	!	!LO:LB:g=original	!	!
=105	=105	=105	=105	=105	=105	=105	=105	=105
.	.	2d\	Mor-	2f\	-men	4b-\	n(un)c	.
.	.	.	.	.	.	4dd\	et	.
*	*	*	*	*	*ij	*	*	*
.	.	4d\	-tis	2b-\	a-	4b-\	in	.
=106-	=106	=106	=106	=106-	=106	=106	=106	=106
2.r	.	2.c\	nos-	.	.	2ee-\	ho-	.
!	!	!	!	!LO:N:vis=2.	!	!	!	!
.	.	.	.	4.a\	.	.	.	.
.	.	.	.	.	.	4ee-\	-ra	.
.	.	.	.	8a\	.	.	.	.
!	!	!	!	!LO:LB:g=original	!	!	!	!
=107	=107	=107	=107	=107	=107	=107	=107	=107
4r	.	4B-\	-trae	2b-\	-men	2dd\	mor-	.
*	*ij	*	*	*	*	*	*	*
4D/	a-	8B-\	a-	.	.	.	.	.
.	.	8c\	.	.	.	.	.	.
4BB-/	-men	8B-\	.	4r	.	4dd\	-tis	.
*	*Xij	*	*	*	*	*	*	*
.	.	8c\	.	.	.	.	.	.
=108	=108	=108	=108	=108	=108	=108	=108	=108
8F\	a-	8A/	.	4r	.	2.cc\	noſ-	.
8E-\	.	8G/	.	.	.	.	.	.
!	!	!LO:LB:g=original	!	!	!	!	!	!
8F\	.	8A/	.	4c/	a-	.	.	.
8G\	.	8B-/	.	.	.	.	.	.
8F\	.	8A/	.	4A/	-men	.	.	.
*	*	*	*	*	*Xij	*	*	*
8E-\	.	8G/	.	.	.	.	.	.
=109	=109	=109	=109	=109	=109	=109-	=109	=109
8D/	.	4F/	.	8f\	a-	4b-\	-trae	.
8C/	.	.	.	(8e-\	.	.	.	.
8D/	.	4F/	-men	8f\	.	4dd\	.	.
8E-/	.	.	.	8g\)	.	.	.	.
8D/	.	4r	.	8f\	.	4b-\	a(m-	.
8E-/	-men	.	.	8g\	.	.	.	.
=110	=110	=110	=110	=110	=110	=110	=110	=110
4C/	n(un)c	4r	.	4e-\	.	8ee-\	-e)n	.
.	.	.	.	.	.	8dd\	a-	.
*	*	*	*ij	*	*	*	*	*
4C/	et	4G/	a-	4e-\	men	8ee-\	.	.
.	.	.	.	.	.	8ff\	.	.
4r	.	4E-/	-men	4r	.	8ee-\	.	.
*	*	*	*Xij	*	*	*	*	*
.	.	.	.	.	.	8ff\	.	.
!LO:LB:g=original	!	!	!	!	!	!	!	!
=111	=111	=111	=111	=111	=111	=111	=111	=111
4BB-/	in	8B-\	a-	4d\	n(un)c	8dd\	.	.
.	.	8A\	.	.	.	8cc\	.	.
4D/	.	8B-\	.	4f\	et	8dd\	.	.
.	.	8c\	.	.	.	8ee-\	.	.
4BB-/	.	8B-\	.	4d\	in	8dd\	.	.
.	.	8c\	.	.	.	8ee-\	.	.
!	!	!	!	!	!	!LO:LB:g=original	!	!
=112	=112	=112	=112	=112	=112	=112	=112	=112
4.F\	ho-	2A/	-men	4.f\	ho-	2cc\	.	.
8E-\	-ra	.	.	8g\	-ra	.	.	.
4D/	Mor-	2B-\	.	4f\	Mor-	2dd\	-men	.
=113	=113	=113-	=113	=113	=113	=113-	=113	=113
4BB-/	-tis	.	.	4f\	-tis	.	.	.
*	*	*	*ij	*	*	*	*ij	*
2F\	A-	4.B-\	a-	2f\	a-	2cc\	a-	.
.	.	8A\	.	.	.	.	.	.
=114	=114	=114	=114	=114	=114	=114	=114	=114
4BB-/	-men.	4B-\	-men	2d\	-men	2b-\	-men	.
4r	.	4r	.	.	.	.	.	.
!LO:TX:b:t=re	!	!	!	!	!	!	!	!
4r	.	4r	.	4r	.	4r	.	.
!LO:LB:g=original	!	!LO:LB:g=original	!	!LO:LB:g=original	!	!	!	!
=115	=115	=115	=115	=115	=115	=115	=115	=115
*	*ij	*	*	*	*ij	*	*	*
!LO:TX:b:t=tro	!	!	!	!	!	!	!	!
2F\	a-	2A\	a-	2f\	a-	2cc\	a-	.
2BB-/	-men	2B-\	-men	2f\	-men	2dd\	-men	.
=116-	=116	=116-	=116	=116-	=116	=116-	=116	=116
2FF/	a-	4.B-\	a-	2f\	a-	2cc\	a-	.
.	.	8A\	.	.	.	.	.	.
=117	=117	=117	=117	=117	=117	=117	=117	=117
4BB-/	-men	4B-\	-men	2d\	-men	2b-\	-men	.
*	*Xij	*	*	*	*Xij	*	*	*
4r	.	4r	.	.	.	.	.	.
4r	.	4r	.	4r	.	4r	.	.
=118	=118	=118	=118	=118	=118	=118	=118	=118
!LO:TX:a:t=1	!	!	!	!	!	!	!	!
2.r	.	2.r	.	2.r	.	2.r	.	.
=119-	=119	=119-	=119	=119-	=119	=119-	=119	=119
!LO:TX:a:t=P:problem:♭ above	!	!	!	!	!	!	!	!
1.EE-	a-	1.B-	a-	1.g	a-	1.ee-	a-	.
=120-	=120	=120	=120	=120	=120	=120	=120	=120
0.BB-	-men	0.B-	-men	0.f	-men.	0.dd	-men	.
*	*	*	*Xij	*	*	*	*Xij	*
==	==	==	==	==	==	==	==	==
*-	*-	*-	*-	*-	*-	*-	*-	*-
!!!system-decoration: [s1,s2,s3,s4]
!!!RDF**kern: < = below
!!!ENC: Marta Lawrence
!!!END: 2021-02-28
!!!ENC: Marcin Jachim
!!!END: 2021-02-09
